X: 1
T:Jenny Dwyer
B:Joyce, P. W.; "Old Irish Folk Music and Songs"
R:song air
H:Required a good deal of correction in the phrasing.
N:See #361 for further history
A:Cork
O:Irish
M:3/8
K:F
L:1/8
"Gracefully"\
f|fcA|Bcd|cAG|F2 F|F2 A|
c>cc|def|egf|d2 c|c2 A|
ccc|def|e>gf|d2 c|Hf2 f|
fcA|Bcd|cAG|F2 F|F2||
